X: 1
T: Miss McLeod's Reel 1
C: Irish
M: C|
R: reel
K: G
|: "G"G2g2 edeg | B2 {Bc}BA BcBA | G2g2 edeg | "D"A2AG AcBA |
   "G"G2g2 edeg | B2 {Bc}BA B2d2 | "C"e2ef edef | "D"gedB AcBA :|
|: "G"GABc dBGA | B2BA BcBA | GABc dBGB | "D"A2AG AcBA |
   "G"GABc dBGA | B2{Bc}BA B2d2 | "C"e2ef edef | "D"gedB AcBA :|
N:Fiddlers Fakebook pg 192 except for end - abc by Peter Ostapenko 3/15/2007
N:G Major
